X:12
T:Bunyan's Oak
M:4/4
L:1/8
C:Taz Tarry
S:Copyright B.Tarry, 24th. March 1992
N:Previously called Bunyan's Orchard
Q:1/4=120
K:D
|:A2 GF FGAB|A2 GF E2 FG|A2 GF FGAd|f>edc dcBA|
A2 GF FGAB|A2 GF E2 FG|A2 GF FGAB|AGFED4:|
|:FAABA2 df|e2 dc dcBA|FAAB A2df|eddc dcBA|
FAABA2 df|e2 dc dcBA|FAAB AGFE|B,DDED4:|

